X: 1
T: Kishkeam Lasses, The
M: 12/8
L: 1/8
R: slide
K: Dmaj
dcd e2d c2E EFG|AFA BAG F3 DFA|
dcd e2d c2E EFG|1A2F GFE D2d d2c:|2A2F AGF D2d d2e||
|:f2d d2c d2f a2f|e2A ABA Bcd efg|
f2d d2c d2f a2f|1efe ABc d3 d2e:|2efe ABc d3 ABc||
